img/logo.svg

<svg width="359" height="41" xmlns="http://www.w3.org/2000/svg"><g fill="#FFF" fill-rule="evenodd"><path fill-rule="nonzero" d="M30 33.408V9.575L15 0 0 9.575v23.833h7.714v-2.57H2.571V10.983L15 3.05l12.429 7.934v19.855h-8.573L7.717 37.95V41l11.896-7.592z"/><path d="M51.84 13.36h-7.96V26h-1.8V11.72h9.76v1.64zm3.86 2.3c3.14 0 4.96 2.32 4.96 5.3s-1.82 5.3-4.96 5.3c-3.16 0-4.96-2.32-4.96-5.3s1.8-5.3 4.96-5.3zm0 9.12c2.22 0 3.26-1.84 3.26-3.82 0-1.98-1.04-3.82-3.26-3.82-2.24 0-3.26 1.84-3.26 3.82 0 1.98 1.02 3.82 3.26 3.82zm12.46-7.64c-2.24 0-3.16 1.84-3.16 3.82 0 1.98.92 3.82 3.16 3.82 2.02 0 3.1-1.58 3.1-3.82 0-2.24-1.08-3.82-3.1-3.82zm-4.84-1.22h1.64V17h.44c.56-.7 1.54-1.34 3.14-1.34 2.78 0 4.42 2.32 4.42 5.3 0 3.04-1.64 5.3-4.42 5.3-1.6 0-2.54-.62-3.08-1.34h-.44V30h-1.7V15.92zm16.64-.26c3.14 0 4.96 2.32 4.96 5.3s-1.82 5.3-4.96 5.3c-3.16 0-4.96-2.32-4.96-5.3s1.8-5.3 4.96-5.3zm0 9.12c2.22 0 3.26-1.84 3.26-3.82 0-1.98-1.04-3.82-3.26-3.82-2.24 0-3.26 1.84-3.26 3.82 0 1.98 1.02 3.82 3.26 3.82zm16.6-.26h1.86v4.34h-1.66V26h-8.72v2.86h-1.66v-4.34h1.34c.64-1.36 1.24-3.34 1.24-5.84v-2.76h7.6v8.6zm-1.7 0V17.4h-4.32v1.28c0 2.54-.48 4.48-1.1 5.84h5.42zm12.58-1.56h1.7c-.38 1.98-1.9 3.3-4.24 3.3-3.14 0-4.9-2.32-4.9-5.3 0-3.04 1.76-5.3 4.9-5.3 2.4 0 3.84 1.32 4.18 3.18h-1.7c-.32-1.02-1.1-1.7-2.48-1.7-2.28 0-3.2 1.78-3.2 3.78 0 2.02.94 3.86 3.2 3.86 1.44 0 2.28-.7 2.54-1.82zm11.2 3.04l-2.24-4.44h-3.02V26h-1.7V15.92h1.7v4.16h3.06l2.1-4.16h1.78l-2.46 4.86 2.6 5.22h-1.82zm8.58-10.34c3.14 0 4.96 2.32 4.96 5.3s-1.82 5.3-4.96 5.3c-3.16 0-4.96-2.32-4.96-5.3s1.8-5.3 4.96-5.3zm0 9.12c2.22 0 3.26-1.84 3.26-3.82 0-1.98-1.04-3.82-3.26-3.82-2.24 0-3.26 1.84-3.26 3.82 0 1.98 1.02 3.82 3.26 3.82zm16.36-4.42v.58h-7.68c.06 2.4 1.14 3.84 3.22 3.84 1.42 0 2.26-.6 2.56-1.56h1.72c-.32 1.72-1.78 3.04-4.28 3.04-3.14 0-4.9-2.3-4.9-5.4 0-3.1 1.8-5.2 4.86-5.2 3 0 4.44 2.22 4.5 4.7zm-4.54-3.22c-1.82 0-2.82 1.1-3.04 2.38h5.82c-.1-1.28-1.08-2.38-2.78-2.38zm17.34-1.12c3.04 0 4.78 2.26 4.78 5.12 0 2.86-1.86 5.12-4.98 5.12-3.2 0-5.02-2.18-5.02-6.1 0-3.4.48-6.9 3.98-7.48l2.68-.44c.74-.1.92-.2.98-.78h1.58c-.06 1.14-.42 1.96-1.98 2.24l-3.1.52c-1.8.32-2.4 1.58-2.62 3.26h.44c.86-1.12 1.84-1.46 3.26-1.46zm-.24 8.76c2.24 0 3.28-1.8 3.28-3.66 0-1.88-1.04-3.64-3.28-3.64-2.24 0-3.28 1.76-3.28 3.64 0 1.86 1.04 3.66 3.28 3.66zm16.5-9.12c3.06 0 4.88 2.34 4.88 5.3s-1.82 5.3-4.88 5.3c-2.84 0-4.62-2.04-4.84-4.7h-2.3V26h-1.68V15.92h1.68v4.16h2.36c.32-2.56 2.06-4.42 4.78-4.42zm0 9.12c2.16 0 3.18-1.84 3.18-3.82 0-1.98-1.02-3.82-3.18-3.82-2.18 0-3.18 1.84-3.18 3.82 0 1.98 1 3.82 3.18 3.82zm12.38-7.64c-2.24 0-3.16 1.84-3.16 3.82 0 1.98.92 3.82 3.16 3.82 2.02 0 3.1-1.58 3.1-3.82 0-2.24-1.08-3.82-3.1-3.82zm-4.84-1.22h1.64V17h.44c.56-.7 1.54-1.34 3.14-1.34 2.78 0 4.42 2.32 4.42 5.3 0 3.04-1.64 5.3-4.42 5.3-1.6 0-2.54-.62-3.08-1.34h-.44V30h-1.7V15.92zm16.64-.26c3.14 0 4.96 2.32 4.96 5.3s-1.82 5.3-4.96 5.3c-3.16 0-4.96-2.32-4.96-5.3s1.8-5.3 4.96-5.3zm0 9.12c2.22 0 3.26-1.84 3.26-3.82 0-1.98-1.04-3.82-3.26-3.82-2.24 0-3.26 1.84-3.26 3.82 0 1.98 1.02 3.82 3.26 3.82zM218.98 26h-1.7v-4.44h-5.58V26H210V15.92h1.7v4.16h5.58v-4.16h1.7V26zM231 20.36v.58h-7.68c.06 2.4 1.14 3.84 3.22 3.84 1.42 0 2.26-.6 2.56-1.56h1.72c-.32 1.72-1.78 3.04-4.28 3.04-3.14 0-4.9-2.3-4.9-5.4 0-3.1 1.8-5.2 4.86-5.2 3 0 4.44 2.22 4.5 4.7zm-4.54-3.22c-1.82 0-2.82 1.1-3.04 2.38h5.82c-.1-1.28-1.08-2.38-2.78-2.38zm16.16 7.38h1.86v4.34h-1.66V26h-8.72v2.86h-1.66v-4.34h1.34c.64-1.36 1.24-3.34 1.24-5.84v-2.76h7.6v8.6zm-1.7 0V17.4h-4.32v1.28c0 2.54-.48 4.48-1.1 5.84h5.42zm12.86-4.08v.44c.94.24 1.64 1.06 1.64 2.36 0 1.84-1.26 2.76-3.56 2.76h-5.18V15.92h5c2.02 0 3.18.94 3.18 2.54 0 .98-.52 1.68-1.08 1.98zm-5.42 4.12h3.4c1.46 0 1.96-.64 1.96-1.5s-.5-1.52-1.96-1.52h-3.4v3.02zm0-7.2v2.74h3.16c1.22 0 1.64-.64 1.64-1.36 0-.78-.42-1.38-1.64-1.38h-3.16zm12.1 8.64h-2.4V15.92h1.66v7.8h.44l4.42-7.8h2.48V26h-1.66v-7.8h-.44l-4.5 7.8zm12.74-4.42L271.26 26h-1.78l2.28-5.18-2.14-4.9h1.76l1.82 4.18h2.58v-4.18h1.64v4.18H280l1.82-4.18h1.76l-2.14 4.9 2.3 5.18h-1.8L280 21.58h-2.58V26h-1.64v-4.42h-2.58zM288.54 26h-2.4V15.92h1.66v7.8h.44l4.42-7.8h2.48V26h-1.66v-7.8h-.44l-4.5 7.8zm9.88 0V15.92h2.7l2.48 4.6h.44l2.48-4.6h2.66V26h-1.66v-8.1h-.44l-2.34 4.32h-1.88l-2.34-4.32h-.44V26h-1.66zm18.38-10.34c3.14 0 4.96 2.32 4.96 5.3s-1.82 5.3-4.96 5.3c-3.16 0-4.96-2.32-4.96-5.3s1.8-5.3 4.96-5.3zm0 9.12c2.22 0 3.26-1.84 3.26-3.82 0-1.98-1.04-3.82-3.26-3.82-2.24 0-3.26 1.84-3.26 3.82 0 1.98 1.02 3.82 3.26 3.82zm14.44-1.82h1.7c-.38 1.98-1.9 3.3-4.24 3.3-3.14 0-4.9-2.32-4.9-5.3 0-3.04 1.76-5.3 4.9-5.3 2.4 0 3.84 1.32 4.18 3.18h-1.7c-.32-1.02-1.1-1.7-2.48-1.7-2.28 0-3.2 1.78-3.2 3.78 0 2.02.94 3.86 3.2 3.86 1.44 0 2.28-.7 2.54-1.82zm3.2-5.56v-1.48h8.68v1.48h-3.48V26h-1.7v-8.6h-3.5zm13.32 8.6h-2.4V15.92h1.66v7.8h.44l4.42-7.8h2.48V26h-1.66v-7.8h-.44l-4.5 7.8z"/></g></svg>

<?xml version="1.0" encoding="UTF-8"?>
<svg width="359px" height="41px" viewBox="0 0 359 41" version="1.1" xmlns="http://www.w3.org/2000/svg" xmlns:xlink="http://www.w3.org/1999/xlink">
    <!-- Generator: Sketch 49.3 (51167) - http://www.bohemiancoding.com/sketch -->
    <title>logo</title>
    <desc>Created with Sketch.</desc>
    <defs></defs>
    <g id="logo" stroke="none" stroke-width="1" fill="none" fill-rule="evenodd">
        <g id="Logo" fill="#FFFFFF">
            <polygon id="Icon" fill-rule="nonzero" points="30 33.4079875 30 9.57537839 15 0 0 9.57537839 0 33.4079875 7.71428571 33.4079875 7.71428571 30.8381351 2.57142857 30.8381351 2.57142857 10.9832525 15 3.04936753 27.4285714 10.9832525 27.4285714 30.8381351 18.8555895 30.8381351 7.71700236 37.9504709 7.71606054 41 19.6129861 33.4079875"></polygon>
            <path d="M51.84,13.36 L43.88,13.36 L43.88,26 L42.08,26 L42.08,11.72 L51.84,11.72 L51.84,13.36 Z M55.7,15.66 C58.84,15.66 60.66,17.98 60.66,20.96 C60.66,23.94 58.84,26.26 55.7,26.26 C52.54,26.26 50.74,23.94 50.74,20.96 C50.74,17.98 52.54,15.66 55.7,15.66 Z M55.7,24.78 C57.92,24.78 58.96,22.94 58.96,20.96 C58.96,18.98 57.92,17.14 55.7,17.14 C53.46,17.14 52.44,18.98 52.44,20.96 C52.44,22.94 53.46,24.78 55.7,24.78 Z M68.16,17.14 C65.92,17.14 65,18.98 65,20.96 C65,22.94 65.92,24.78 68.16,24.78 C70.18,24.78 71.26,23.2 71.26,20.96 C71.26,18.72 70.18,17.14 68.16,17.14 Z M63.32,15.92 L64.96,15.92 L64.96,17 L65.4,17 C65.96,16.3 66.94,15.66 68.54,15.66 C71.32,15.66 72.96,17.98 72.96,20.96 C72.96,24 71.32,26.26 68.54,26.26 C66.94,26.26 66,25.64 65.46,24.92 L65.02,24.92 L65.02,30 L63.32,30 L63.32,15.92 Z M79.96,15.66 C83.1,15.66 84.92,17.98 84.92,20.96 C84.92,23.94 83.1,26.26 79.96,26.26 C76.8,26.26 75,23.94 75,20.96 C75,17.98 76.8,15.66 79.96,15.66 Z M79.96,24.78 C82.18,24.78 83.22,22.94 83.22,20.96 C83.22,18.98 82.18,17.14 79.96,17.14 C77.72,17.14 76.7,18.98 76.7,20.96 C76.7,22.94 77.72,24.78 79.96,24.78 Z M96.56,24.52 L98.42,24.52 L98.42,28.86 L96.76,28.86 L96.76,26 L88.04,26 L88.04,28.86 L86.38,28.86 L86.38,24.52 L87.72,24.52 C88.36,23.16 88.96,21.18 88.96,18.68 L88.96,15.92 L96.56,15.92 L96.56,24.52 Z M94.86,24.52 L94.86,17.4 L90.54,17.4 L90.54,18.68 C90.54,21.22 90.06,23.16 89.44,24.52 L94.86,24.52 Z M107.44,22.96 L109.14,22.96 C108.76,24.94 107.24,26.26 104.9,26.26 C101.76,26.26 100,23.94 100,20.96 C100,17.92 101.76,15.66 104.9,15.66 C107.3,15.66 108.74,16.98 109.08,18.84 L107.38,18.84 C107.06,17.82 106.28,17.14 104.9,17.14 C102.62,17.14 101.7,18.92 101.7,20.92 C101.7,22.94 102.64,24.78 104.9,24.78 C106.34,24.78 107.18,24.08 107.44,22.96 Z M118.64,26 L116.4,21.56 L113.38,21.56 L113.38,26 L111.68,26 L111.68,15.92 L113.38,15.92 L113.38,20.08 L116.44,20.08 L118.54,15.92 L120.32,15.92 L117.86,20.78 L120.46,26 L118.64,26 Z M127.22,15.66 C130.36,15.66 132.18,17.98 132.18,20.96 C132.18,23.94 130.36,26.26 127.22,26.26 C124.06,26.26 122.26,23.94 122.26,20.96 C122.26,17.98 124.06,15.66 127.22,15.66 Z M127.22,24.78 C129.44,24.78 130.48,22.94 130.48,20.96 C130.48,18.98 129.44,17.14 127.22,17.14 C124.98,17.14 123.96,18.98 123.96,20.96 C123.96,22.94 124.98,24.78 127.22,24.78 Z M143.58,20.36 L143.58,20.94 L135.9,20.94 C135.96,23.34 137.04,24.78 139.12,24.78 C140.54,24.78 141.38,24.18 141.68,23.22 L143.4,23.22 C143.08,24.94 141.62,26.26 139.12,26.26 C135.98,26.26 134.22,23.96 134.22,20.86 C134.22,17.76 136.02,15.66 139.08,15.66 C142.08,15.66 143.52,17.88 143.58,20.36 Z M139.04,17.14 C137.22,17.14 136.22,18.24 136,19.52 L141.82,19.52 C141.72,18.24 140.74,17.14 139.04,17.14 Z M156.38,16.02 C159.42,16.02 161.16,18.28 161.16,21.14 C161.16,24 159.3,26.26 156.18,26.26 C152.98,26.26 151.16,24.08 151.16,20.16 C151.16,16.76 151.64,13.26 155.14,12.68 L157.82,12.24 C158.56,12.14 158.74,12.04 158.8,11.46 L160.38,11.46 C160.32,12.6 159.96,13.42 158.4,13.7 L155.3,14.22 C153.5,14.54 152.9,15.8 152.68,17.48 L153.12,17.48 C153.98,16.36 154.96,16.02 156.38,16.02 Z M156.14,24.78 C158.38,24.78 159.42,22.98 159.42,21.12 C159.42,19.24 158.38,17.48 156.14,17.48 C153.9,17.48 152.86,19.24 152.86,21.12 C152.86,22.98 153.9,24.78 156.14,24.78 Z M172.64,15.66 C175.7,15.66 177.52,18 177.52,20.96 C177.52,23.92 175.7,26.26 172.64,26.26 C169.8,26.26 168.02,24.22 167.8,21.56 L165.5,21.56 L165.5,26 L163.82,26 L163.82,15.92 L165.5,15.92 L165.5,20.08 L167.86,20.08 C168.18,17.52 169.92,15.66 172.64,15.66 Z M172.64,24.78 C174.8,24.78 175.82,22.94 175.82,20.96 C175.82,18.98 174.8,17.14 172.64,17.14 C170.46,17.14 169.46,18.98 169.46,20.96 C169.46,22.94 170.46,24.78 172.64,24.78 Z M185.02,17.14 C182.78,17.14 181.86,18.98 181.86,20.96 C181.86,22.94 182.78,24.78 185.02,24.78 C187.04,24.78 188.12,23.2 188.12,20.96 C188.12,18.72 187.04,17.14 185.02,17.14 Z M180.18,15.92 L181.82,15.92 L181.82,17 L182.26,17 C182.82,16.3 183.8,15.66 185.4,15.66 C188.18,15.66 189.82,17.98 189.82,20.96 C189.82,24 188.18,26.26 185.4,26.26 C183.8,26.26 182.86,25.64 182.32,24.92 L181.88,24.92 L181.88,30 L180.18,30 L180.18,15.92 Z M196.82,15.66 C199.96,15.66 201.78,17.98 201.78,20.96 C201.78,23.94 199.96,26.26 196.82,26.26 C193.66,26.26 191.86,23.94 191.86,20.96 C191.86,17.98 193.66,15.66 196.82,15.66 Z M196.82,24.78 C199.04,24.78 200.08,22.94 200.08,20.96 C200.08,18.98 199.04,17.14 196.82,17.14 C194.58,17.14 193.56,18.98 193.56,20.96 C193.56,22.94 194.58,24.78 196.82,24.78 Z M218.98,26 L217.28,26 L217.28,21.56 L211.7,21.56 L211.7,26 L210,26 L210,15.92 L211.7,15.92 L211.7,20.08 L217.28,20.08 L217.28,15.92 L218.98,15.92 L218.98,26 Z M231,20.36 L231,20.94 L223.32,20.94 C223.38,23.34 224.46,24.78 226.54,24.78 C227.96,24.78 228.8,24.18 229.1,23.22 L230.82,23.22 C230.5,24.94 229.04,26.26 226.54,26.26 C223.4,26.26 221.64,23.96 221.64,20.86 C221.64,17.76 223.44,15.66 226.5,15.66 C229.5,15.66 230.94,17.88 231,20.36 Z M226.46,17.14 C224.64,17.14 223.64,18.24 223.42,19.52 L229.24,19.52 C229.14,18.24 228.16,17.14 226.46,17.14 Z M242.62,24.52 L244.48,24.52 L244.48,28.86 L242.82,28.86 L242.82,26 L234.1,26 L234.1,28.86 L232.44,28.86 L232.44,24.52 L233.78,24.52 C234.42,23.16 235.02,21.18 235.02,18.68 L235.02,15.92 L242.62,15.92 L242.62,24.52 Z M240.92,24.52 L240.92,17.4 L236.6,17.4 L236.6,18.68 C236.6,21.22 236.12,23.16 235.5,24.52 L240.92,24.52 Z M253.78,20.44 L253.78,20.88 C254.72,21.12 255.42,21.94 255.42,23.24 C255.42,25.08 254.16,26 251.86,26 L246.68,26 L246.68,15.92 L251.68,15.92 C253.7,15.92 254.86,16.86 254.86,18.46 C254.86,19.44 254.34,20.14 253.78,20.44 Z M248.36,24.56 L251.76,24.56 C253.22,24.56 253.72,23.92 253.72,23.06 C253.72,22.2 253.22,21.54 251.76,21.54 L248.36,21.54 L248.36,24.56 Z M248.36,17.36 L248.36,20.1 L251.52,20.1 C252.74,20.1 253.16,19.46 253.16,18.74 C253.16,17.96 252.74,17.36 251.52,17.36 L248.36,17.36 Z M260.46,26 L258.06,26 L258.06,15.92 L259.72,15.92 L259.72,23.72 L260.16,23.72 L264.58,15.92 L267.06,15.92 L267.06,26 L265.4,26 L265.4,18.2 L264.96,18.2 L260.46,26 Z M273.2,21.58 L271.26,26 L269.48,26 L271.76,20.82 L269.62,15.92 L271.38,15.92 L273.2,20.1 L275.78,20.1 L275.78,15.92 L277.42,15.92 L277.42,20.1 L280,20.1 L281.82,15.92 L283.58,15.92 L281.44,20.82 L283.74,26 L281.94,26 L280,21.58 L277.42,21.58 L277.42,26 L275.78,26 L275.78,21.58 L273.2,21.58 Z M288.54,26 L286.14,26 L286.14,15.92 L287.8,15.92 L287.8,23.72 L288.24,23.72 L292.66,15.92 L295.14,15.92 L295.14,26 L293.48,26 L293.48,18.2 L293.04,18.2 L288.54,26 Z M298.42,26 L298.42,15.92 L301.12,15.92 L303.6,20.52 L304.04,20.52 L306.52,15.92 L309.18,15.92 L309.18,26 L307.52,26 L307.52,17.9 L307.08,17.9 L304.74,22.22 L302.86,22.22 L300.52,17.9 L300.08,17.9 L300.08,26 L298.42,26 Z M316.8,15.66 C319.94,15.66 321.76,17.98 321.76,20.96 C321.76,23.94 319.94,26.26 316.8,26.26 C313.64,26.26 311.84,23.94 311.84,20.96 C311.84,17.98 313.64,15.66 316.8,15.66 Z M316.8,24.78 C319.02,24.78 320.06,22.94 320.06,20.96 C320.06,18.98 319.02,17.14 316.8,17.14 C314.56,17.14 313.54,18.98 313.54,20.96 C313.54,22.94 314.56,24.78 316.8,24.78 Z M331.24,22.96 L332.94,22.96 C332.56,24.94 331.04,26.26 328.7,26.26 C325.56,26.26 323.8,23.94 323.8,20.96 C323.8,17.92 325.56,15.66 328.7,15.66 C331.1,15.66 332.54,16.98 332.88,18.84 L331.18,18.84 C330.86,17.82 330.08,17.14 328.7,17.14 C326.42,17.14 325.5,18.92 325.5,20.92 C325.5,22.94 326.44,24.78 328.7,24.78 C330.14,24.78 330.98,24.08 331.24,22.96 Z M334.44,17.4 L334.44,15.92 L343.12,15.92 L343.12,17.4 L339.64,17.4 L339.64,26 L337.94,26 L337.94,17.4 L334.44,17.4 Z M347.76,26 L345.36,26 L345.36,15.92 L347.02,15.92 L347.02,23.72 L347.46,23.72 L351.88,15.92 L354.36,15.92 L354.36,26 L352.7,26 L352.7,18.2 L352.26,18.2 L347.76,26 Z" id="Phone-number"></path>
        </g>
    </g>
</svg>
